applications/gitg.svg

<?xml version="1.0" encoding="UTF-8" standalone="no"?>
<!-- Created with Inkscape (http://www.inkscape.org/) -->

<svg
   xmlns:dc="http://purl.org/dc/elements/1.1/"
   xmlns:cc="http://creativecommons.org/ns#"
   xmlns:rdf="http://www.w3.org/1999/02/22-rdf-syntax-ns#"
   xmlns:svg="http://www.w3.org/2000/svg"
   xmlns="http://www.w3.org/2000/svg"
   xmlns:sodipodi="http://sodipodi.sourceforge.net/DTD/sodipodi-0.dtd"
   xmlns:inkscape="http://www.inkscape.org/namespaces/inkscape"
   width="48"
   height="48"
   id="svg4152"
   version="1.1"
   inkscape:version="0.92.1 r"
   viewBox="0 0 48 48"
   sodipodi:docname="gitg.svg">
  <defs
     id="defs4154">
    <filter
       style="color-interpolation-filters:sRGB;"
       inkscape:label="Drop Shadow"
       id="filter1007">
      <feFlood
         flood-opacity="0.298039"
         flood-color="rgb(0,0,0)"
         result="flood"
         id="feFlood997" />
      <feComposite
         in="flood"
         in2="SourceGraphic"
         operator="in"
         result="composite1"
         id="feComposite999" />
      <feGaussianBlur
         in="composite1"
         stdDeviation="0.8"
         result="blur"
         id="feGaussianBlur1001" />
      <feOffset
         dx="0"
         dy="0.4"
         result="offset"
         id="feOffset1003" />
      <feComposite
         in="SourceGraphic"
         in2="offset"
         operator="over"
         result="composite2"
         id="feComposite1005" />
    </filter>
  </defs>
  <sodipodi:namedview
     id="base"
     pagecolor="#ededed"
     bordercolor="#000000"
     borderopacity="0.49803922"
     inkscape:pageopacity="0"
     inkscape:pageshadow="2"
     inkscape:zoom="3.924054"
     inkscape:cx="-1.4058679"
     inkscape:cy="32.103673"
     inkscape:current-layer="layer1"
     showgrid="false"
     inkscape:grid-bbox="true"
     inkscape:document-units="px"
     inkscape:showpageshadow="false"
     borderlayer="true"
     inkscape:window-width="1920"
     inkscape:window-height="1012"
     inkscape:window-x="0"
     inkscape:window-y="32"
     inkscape:window-maximized="1">
    <inkscape:grid
       type="xygrid"
       id="grid4700"
       color="#000000"
       opacity="0.0627451"
       empcolor="#000000"
       empopacity="0.1254902"
       empspacing="4"
       spacingx="2"
       spacingy="2" />
  </sodipodi:namedview>
  <metadata
     id="metadata4157">
    <rdf:RDF>
      <cc:Work
         rdf:about="">
        <dc:format>image/svg+xml</dc:format>
        <dc:type
           rdf:resource="http://purl.org/dc/dcmitype/StillImage" />
        <dc:title />
      </cc:Work>
    </rdf:RDF>
  </metadata>
  <g
     id="layer1"
     inkscape:label="Layer 1"
     inkscape:groupmode="layer"
     transform="translate(0,32)">
    <path
       style="color:#000000;font-style:normal;font-variant:normal;font-weight:normal;font-stretch:normal;font-size:medium;line-height:normal;font-family:sans-serif;font-variant-ligatures:normal;font-variant-position:normal;font-variant-caps:normal;font-variant-numeric:normal;font-variant-alternates:normal;font-feature-settings:normal;text-indent:0;text-align:start;text-decoration:none;text-decoration-line:none;text-decoration-style:solid;text-decoration-color:#000000;letter-spacing:normal;word-spacing:normal;text-transform:none;writing-mode:lr-tb;direction:ltr;text-orientation:mixed;dominant-baseline:auto;baseline-shift:baseline;text-anchor:start;white-space:normal;shape-padding:0;clip-rule:nonzero;display:inline;overflow:visible;visibility:visible;opacity:1;isolation:auto;mix-blend-mode:normal;color-interpolation:sRGB;color-interpolation-filters:linearRGB;solid-color:#000000;solid-opacity:1;vector-effect:none;fill:#f44336;fill-opacity:1;fill-rule:evenodd;stroke:none;stroke-width:4;stroke-linecap:round;stroke-linejoin:round;stroke-miterlimit:4;stroke-dasharray:none;stroke-dashoffset:0;stroke-opacity:1;color-rendering:auto;image-rendering:auto;shape-rendering:auto;text-rendering:auto;enable-background:accumulate;filter:url(#filter1007)"
       d="m 23.970703,-30 c -0.520227,0.0078 -1.01695,0.217959 -1.384765,0.585938 L 2.5859375,-9.4140625 c -0.7807368,0.7810597 -0.7807368,2.0470653 0,2.828125 L 22.585938,13.414062 c 0.78106,0.780736 2.047064,0.780736 2.828124,0 l 20,-19.9999995 c 0.780737,-0.7810597 0.780737,-2.0470653 0,-2.828125 l -20,-19.9999995 C 25.03189,-29.796396 24.511235,-30.007758 23.970703,-30 Z"
       id="path817"
       inkscape:connector-curvature="0"
       sodipodi:nodetypes="cccccccccc" />
    <path
       style="color:#000000;font-style:normal;font-variant:normal;font-weight:normal;font-stretch:normal;font-size:medium;line-height:normal;font-family:sans-serif;font-variant-ligatures:normal;font-variant-position:normal;font-variant-caps:normal;font-variant-numeric:normal;font-variant-alternates:normal;font-feature-settings:normal;text-indent:0;text-align:start;text-decoration:none;text-decoration-line:none;text-decoration-style:solid;text-decoration-color:#000000;letter-spacing:normal;word-spacing:normal;text-transform:none;writing-mode:lr-tb;direction:ltr;text-orientation:mixed;dominant-baseline:auto;baseline-shift:baseline;text-anchor:start;white-space:normal;shape-padding:0;clip-rule:nonzero;display:inline;overflow:visible;visibility:visible;opacity:1;isolation:auto;mix-blend-mode:normal;color-interpolation:sRGB;color-interpolation-filters:linearRGB;solid-color:#000000;solid-opacity:1;vector-effect:none;fill:#ffffff;fill-opacity:1;fill-rule:evenodd;stroke:none;stroke-width:2;stroke-linecap:butt;stroke-linejoin:miter;stroke-miterlimit:4;stroke-dasharray:none;stroke-dashoffset:0;stroke-opacity:1;color-rendering:auto;image-rendering:auto;shape-rendering:auto;text-rendering:auto;enable-background:accumulate"
       d="M 17.292969 7.8789062 L 15.878906 9.2929688 L 21.294922 14.708984 A 3 3 0 0 0 21 16 A 3 3 0 0 0 23 18.824219 L 23 29.173828 A 3 3 0 0 0 21 32 A 3 3 0 0 0 24 35 A 3 3 0 0 0 27 32 A 3 3 0 0 0 25 29.175781 L 25 18.826172 A 3 3 0 0 0 25.291016 18.705078 L 29.294922 22.708984 A 3 3 0 0 0 29 24 A 3 3 0 0 0 32 27 A 3 3 0 0 0 35 24 A 3 3 0 0 0 32 21 A 3 3 0 0 0 30.708984 21.294922 L 26.705078 17.291016 A 3 3 0 0 0 27 16 A 3 3 0 0 0 24 13 A 3 3 0 0 0 22.708984 13.294922 L 17.292969 7.8789062 z "
       transform="translate(0,-32)"
       id="path823" />
  </g>
</svg>

<svg 
    xmlns="http://www.w3.org/2000/svg" width="48" height="48">
    <defs>
        <filter id="a">
            <feGaussianBlur in="SourceAlpha" stdDeviation=".8"/>
            <feOffset dy=".4"/>
            <feComponentTransfer>
                <feFuncA slope=".3" type="linear"/>
            </feComponentTransfer>
            <feMerge>
                <feMergeNode/>
                <feMergeNode in="SourceGraphic"/>
            </feMerge>
        </filter>
    </defs>
    <g fill-rule="evenodd">
        <path fill="#f44336" d="M23.97-30a2 2 0 0 0-1.384.586l-20 20a2 2 0 0 0 0 2.828l20 20a2 2 0 0 0 2.828 0l20-20a2 2 0 0 0 0-2.828l-20-20A2 2 0 0 0 23.971-30z" filter="url(#a)" transform="translate(0 32)"/>
        <path fill="#fff" d="M17.293 7.879l-1.414 1.414 5.416 5.416A3 3 0 0 0 21 16a3 3 0 0 0 2 2.824v10.35A3 3 0 0 0 21 32a3 3 0 0 0 3 3 3 3 0 0 0 3-3 3 3 0 0 0-2-2.824v-10.35a3 3 0 0 0 .291-.12l4.004 4.003A3 3 0 0 0 29 24a3 3 0 0 0 3 3 3 3 0 0 0 3-3 3 3 0 0 0-3-3 3 3 0 0 0-1.291.295l-4.004-4.004A3 3 0 0 0 27 16a3 3 0 0 0-3-3 3 3 0 0 0-1.291.295l-5.416-5.416z"/>
    </g>
</svg>
